X: 1
T: Hellebore
C: Naragonia
R: reel
S: Handout for MIT contra 2018-07-10 from Yaron Shragai
Z: 2018 John Chambers <jc:trillian.mit.edu>
M: C|
L: 1/8
K: Gm
|::: "Gm"DGBd c2AG | "Eb6"BcBG A2AG | "D"^FGAG F2DF |1,3 ^FGAG BGA2 :|2,4 "D"^FGAF "Gm"G4 :|
|::: "Gm"d3A  c2AG | "Eb6"BcBG A2AG | "D"^FGAG F2DF |1,3 ^FGAG BGA2 :|2,4 "D"^FGAF "Gm"G4 :|
